src/assets/bold/lm-paragraph-long-bold.svg

<svg width="24" height="24" viewBox="0 0 24 24" fill="none" xmlns="http://www.w3.org/2000/svg" fill="currentColor">
<path d="M21 14.0625C21 13.6483 20.6642 13.3125 20.25 13.3125H3.75C3.33579 13.3125 3 13.6483 3 14.0625C3 14.4767 3.33579 14.8125 3.75 14.8125H20.25C20.6642 14.8125 21 14.4767 21 14.0625Z" fill="black"/>
<path d="M21 10.0312C21 9.61704 20.6642 9.28125 20.25 9.28125L3.75 9.28125C3.33579 9.28125 3 9.61704 3 10.0313C3 10.4455 3.33579 10.7813 3.75 10.7813L20.25 10.7812C20.6642 10.7812 21 10.4455 21 10.0312Z" fill="black"/>
<path d="M21 6C21 5.58579 20.6642 5.25 20.25 5.25H3.75C3.33579 5.25 3 5.58579 3 6C3 6.41421 3.33579 6.75 3.75 6.75H20.25C20.6642 6.75 21 6.41421 21 6Z" fill="black"/>
<path d="M12 18.0938C12 17.6795 11.6642 17.3438 11.25 17.3438L3.75 17.3438C3.33579 17.3438 3 17.6795 3 18.0938C3 18.508 3.33579 18.8438 3.75 18.8438L11.25 18.8438C11.6642 18.8438 12 18.508 12 18.0938Z" fill="black"/>
</svg>

<svg xmlns="http://www.w3.org/2000/svg" width="24" height="24" fill="currentColor" viewBox="0 0 24 24">
  <path d="M21 14.063a.75.75 0 0 0-.75-.75H3.75a.75.75 0 0 0 0 1.5h16.5a.75.75 0 0 0 .75-.75Zm0-4.032a.75.75 0 0 0-.75-.75H3.75a.75.75 0 0 0 0 1.5h16.5a.75.75 0 0 0 .75-.75ZM21 6a.75.75 0 0 0-.75-.75H3.75a.75.75 0 0 0 0 1.5h16.5A.75.75 0 0 0 21 6Zm-9 12.094a.75.75 0 0 0-.75-.75h-7.5a.75.75 0 1 0 0 1.5h7.5a.75.75 0 0 0 .75-.75Z"/>
</svg>
